X:196
T:Julia Delaney's
Z:Jack Campin, http://www.campin.me.uk/
F:Jack Campin's Nine-Note Tunebook
% last edit 03-02-2013
N:in the standard key, but the second part has been
N:octave shifted to fit and some other notes changed
M:C|
L:1/8
Q:1/2=100
K:DDor
A|dcAG F2DF|EDCE FDD2|dcAG F2DF|Add^c d3
A|dcAG F2DF|EDCE FDD2|dcAG F2DF|Add^c d3:|
E|FEDE FAGF|ECGC ACGC|FEDE FAGF|EDCE  D3
E|FEDE FAGF|ECGC ACGC|FEDC AGFG|Add^c d3:|

